X: 84
T:Gyre And Gimble
% Nottingham Music Database
S:via PR
M:4/4
L:1/4
K:D
A|"D"dA FA|"Em"BG "A7"EG|"D"FA d3/2e/2|"A7"f/2g/2f/2e/2 "D"dA|"D"dA FA|\
"Em"BG EG|"A7"F3/2E/2 DC|"D"D3::
F/2G/2|"D"A3/2G/2 FG|Ad fA|"Em"Bd gf|"A7"e/2f/2e/2d/2 cF/2G/2|
"D"A3/2G/2 FG|Ad fA|"G"Bg "A7"f/2e/2d/2c/2|"D"d3::
c/2d/2|"A"e3/2c/2 AA|"D"f3/2d/2 AA|"E7"^ge fg|"A7"ag fe|"D"dA FA|"Em"BG EG|\
"D"FA "A7"d3/2e/2|"D"d3:|<end>
<start>
